X: 206
T: Zhefang qingge
%%abc-version 2.0
%%abcx-abcm2ps-target-version 5.9.1 (29 Sep 2008)
%%abc-creator hum2abc beta
%%abcx-conversion-date 2013/10/02 07:44:28
%%abc-edited-by Helmut Schaffrath
%%humdrum-veritas 464191764
%%humdrum-veritas-data 3021042074
%%continueall 1
%%barnumbers 0
L: 1/8
M: 3/4
K: Ab
F AF2 [I:setbarnb 1]| 
F A c e | 
c ec2F z | 
[M:2/4]B2c2 | 
F AF2 | 
B2c2 | 
c2c2 | 
A2B2 | 
c2B A | 
F2A2 | 
[M:3/4]B4z2 | 
[M:2/4]A2c c | 
B c A A | 
c2c z | 
B> c A F | 
E2F A | 
[M:3/4]A2B3c | 
A zc2A2 | 
[M:2/4]c2F2 | 
A2B c | 
B AF2 | 
A2c/ z3/ |]  
